X:1
T:Hosanna, 555.11.555.11
T:Hosanna, 555.11.555.11
T:Henry John Gauntlett (1805-1876)
T:Public Domain Courtesy of the Cyber Hymnal™
C:Henry John Gauntlett (1805-1876)
Z:Public Domain
Z:Courtesy of the Cyber Hymnal™
%%score ( 1 2 ) ( 3 4 )
L:1/8
Q:1/4=115
M:3/4
K:F
V:1 treble 
V:2 treble 
V:3 bass 
V:4 bass 
V:1
 [CA]2 | [DA]2 [DG]2 [Ed]2 | [Fc]4 ([CA][CA]) | [DA]2 [DG]2 [Ed]2 | [Fc]4 ([Ec][Ec]) | %5
 [Fc]2 [Fd]2 [Ge]2 | [Af]4 [FA]2 | [FA]2 [FB]2 [Fd]2 | [Ed]2 [Fc]2 [Fc]2 | [Gc]2 [GB]2 [FA]2 | %10
 [FA]4 ([Ec][Ec]) | [Dc]2 [D=B]2 [Fd]2 | [Ec]4 ([Ec][Ec]) | [Dc]2 [D=B]2 [Fd]2 | [Ec]4 ([Gc][Gc]) | %15
 [Ad]2 [Gd]2 [Gc]2 | [Fc]4 F2 | [FB]2 [EB]2 [DB]2 | [CB]2 [CA]2 [FA]2 | [FA]2 [FA]2 [EG]2 | F4 |] %21
V:2
 x2 | x6 | x6 | x6 | x6 | x6 | x6 | x6 | x6 | x6 | x6 | x6 | x6 | x6 | x6 | x6 | x4 F2 | x6 | x6 | %19
 x6 | F4 |] %21
V:3
 F,2 | [B,,F,]2 [B,,G,]2 [B,,G,]2 | [A,,C]4 F,F, | [B,,F,]2 [B,,G,]2 [B,,G,]2 | [A,,C]4 C[B,C] | %5
 [A,C]2 [A,C]2 [G,B,]2 | [F,C]4 [F,C]2 | [_E,C]2 [D,B,]2 [B,,B,]2 | [B,,G,]2 [A,,C]2 [A,C]2 | %9
 [E,C]2 [E,C]2 [F,C]2 | [C,C]4 ([C,G,][C,G,]) | G,2 G,2 [G,=B,]2 | [C,C]4 ([C,G,][C,G,]) | %13
 G,2 G,2 [G,=B,]2 | [C,C]4 ([CE][CE]) | [CF]2 [B,D]2 [B,E]2 | [A,F]4 [A,C]2 | %17
 [A,D]2 [G,B,]2 [F,A,]2 | [E,G,]2 [F,A,]2 [D,C]2 | [G,,=B,]2 [C,C]2 [C,_B,]2 | [F,,A,]4 |] %21
V:4
 F,2 | x6 | x4 (F,F,) | x6 | x4 C x | x6 | x6 | x6 | x6 | x6 | x6 | G,2 G,2 x2 | x6 | G,2 G,2 x2 | %14
 x6 | x6 | x6 | x6 | x6 | x6 | x4 |] %21

